icons/svg/qrcode-scan.svg

﻿<?xml version="1.0" encoding="utf-8"?>
<!DOCTYPE svg PUBLIC "-//W3C//DTD SVG 1.1//EN" "http://www.w3.org/Graphics/SVG/1.1/DTD/svg11.dtd">
<svg xmlns="http://www.w3.org/2000/svg" xmlns:xlink="http://www.w3.org/1999/xlink" version="1.1" baseProfile="full" width="24" height="24" viewBox="0 0 24.00 24.00" enable-background="new 0 0 24.00 24.00" xml:space="preserve">
	<path fill="#000000" fill-opacity="1" stroke-width="0.2" stroke-linejoin="miter" d="M 4,4L 10,4L 10,10L 4,10L 4,4 Z M 20,4.00003L 20,10L 14,10L 14,4.00003L 20,4.00003 Z M 14,15L 16,15L 16,13L 14,13L 14,11L 16,11L 16,13L 18,13L 18,11L 20,11L 20,13L 18,13L 18,15L 20,15L 20,18L 18,18L 18,20L 16,20L 16,18L 13,18L 13,20L 11,20L 11,16L 14,16L 14,15 Z M 16,15L 16,18L 18,18L 18,15L 16,15 Z M 3.99999,20L 3.99999,14L 9.99999,14L 9.99999,20L 3.99999,20 Z M 5.99999,6.00003L 5.99999,8.00003L 7.99999,8.00003L 7.99999,6.00003L 5.99999,6.00003 Z M 16,6.00002L 16,8.00003L 18,8.00003L 18,6.00002L 16,6.00002 Z M 5.99999,16L 5.99999,18L 7.99999,18L 7.99999,16L 5.99999,16 Z M 4,11L 6,11L 6,13L 4,13L 4,11 Z M 8.99999,11L 13,11L 13,15L 11,15L 11,13L 8.99999,13L 8.99999,11 Z M 11,6.00002L 13,6.00002L 13,10L 11,10L 11,6.00002 Z M 2,2L 2,6L 0,6L 0,2C 0,0.9 0.900001,0 2,0L 6,0L 6,2L 2,2 Z M 22,1.90735e-006C 23.1,1.90735e-006 24,0.900002 24,2L 24,6L 22,6L 22,2L 18,2L 18,1.90735e-006L 22,1.90735e-006 Z M 2,18L 2,22L 6,22L 6,24L 2,24C 0.900001,24 0,23.1 0,22L 0,18L 2,18 Z M 22,22L 22,18L 24,18L 24,22C 24,23.1 23.1,24 22,24L 18,24L 18,22L 22,22 Z "/>
</svg>

<svg xmlns="http://www.w3.org/2000/svg" version="1.1" baseProfile="full" width="24" height="24" viewBox="0 0 24.00 24.00" xml:space="preserve"><path fill="#000" fill-opacity="1" stroke-width=".2" stroke-linejoin="miter" d="M4 4h6v6H4V4zm16 0v6h-6V4h6zm-6 11h2v-2h-2v-2h2v2h2v-2h2v2h-2v2h2v3h-2v2h-2v-2h-3v2h-2v-4h3v-1zm2 0v3h2v-3h-2zM4 20v-6h6v6H4zM6 6v2h2V6H6zm10 0v2h2V6h-2zM6 16v2h2v-2H6zm-2-5h2v2H4v-2zm5 0h4v4h-2v-2H9v-2zm2-5h2v4h-2V6zM2 2v4H0V2C0 .9.9 0 2 0h4v2H2zm20-2c1.1 0 2 .9 2 2v4h-2V2h-4V0h4zM2 18v4h4v2H2c-1.1 0-2-.9-2-2v-4h2zm20 4v-4h2v4c0 1.1-.9 2-2 2h-4v-2h4z"/></svg>
